X:6870
T:The Haggis
O:england
C:Trad
R:Reel
M:4/4
K:Am
E3 A cE D | E2 cd BABd | e2 de GA c | dBed BAAG | E2 A2 cE D2 | E2 cd BA
Bd |
e2 de GA c | dBed BA A2 || geed cd A2 | c2 dc gedc | eAcG ED D2 | E2 cd
BABd |
geed cd A2 | c2 dc gedc | e2 de ceBe | cBed BA A2 ||


